X: 1
T:Granny Won't Your Dog Bite
C:
S:Old Time, from Ruthie Dornfeld
Z:
M:4/4
L:1/8
K:AMix
A2AA A,CEC| DEFD E2CE| DEFD E2EE|DEFD EF^GE|
A2AA A,CEC| DEFD E2EE|e3d cBAc|1 BA^GB A2 E^G:|[2 BA^GB A4||
|:e3d cAcd| eAfA gAfA|efed cABA |a3a- aged|
e2 (e2 e)dcd| eAfA gAfA| efed cBAc|BA^GB A4:|]
